X:471
T:Hamabe no Uta
T:Song of the Seashore
Z:Jack Campin, http://www.campin.me.uk/
F:Jack Campin's Nine-Note Tunebook
% last edit 03-02-2013
C:Narita Tamezo
M:6/8
L:1/8
Q:3/8=60
K:F
C|C2 F/G/ A2  G/F/|G2 D F2 E/D/|C2 F A2 G/F/|G3- G2
C|C2 F/G/ A2  G/F/|G2 D F2 E/D/|C2 A C2 G   |F3- F2
c|c2 G    c2 ^G   |c3   A2 d   |d2 B F2 G   |c3- c2
C|C2 F/G/ A2  G/F/|G2 D F2 E/D/|C2 A C2 G   |F3- Fz|]

